svgs/sharp-solid/option.svg

<svg xmlns="http://www.w3.org/2000/svg" viewBox="0 0 640 512"><!--! Font Awesome Pro 6.6.0 by @fontawesome - https://fontawesome.com License - https://fontawesome.com/license (Commercial License) Copyright 2024 Fonticons, Inc. --><path d="M448 448l-15.4 0L423 436 176.6 128 32 128 0 128 0 64l32 0 160 0 15.4 0L217 76 463.4 384 608 384l32 0 0 64-32 0-160 0zm0-320l-32 0 0-64 32 0 160 0 32 0 0 64-32 0-160 0z"/></svg>

<svg xmlns="http://www.w3.org/2000/svg" viewBox="0 0 640 512"><!--! Font Awesome Pro 6.4.0 by @fontawesome - https://fontawesome.com License - https://fontawesome.com/license (Commercial License) Copyright 2023 Fonticons, Inc. --><path d="M448 448H432.6L423 436 176.6 128H32 0V64H32 192h15.4L217 76 463.4 384H608h32v64H608 448zm0-320H416V64h32H608h32v64H608 448z"/></svg>
